X:1
T:If It Be True
T:If It Be True
T:Daniel Brink Towner
T:Grace A. McClanathan, 1909
T:Public Domain Courtesy of the Cyber Hymnal™
T:Public Domain Courtesy of the Cyber Hymnal™
C:Daniel Brink Towner
Z:Public Domain
Z:Courtesy of the Cyber Hymnal™
%%score ( 1 2 ) ( 3 4 )
L:1/8
Q:1/4=95
M:4/4
K:A
V:1 treble 
V:2 treble 
V:3 bass 
V:4 bass 
V:1
 (3EFG x | A2 [EA][EA] [DG][DG] [DF]2 | [CE]6 ([A,C][A,C]) | [CE]2 [CF][CE] [B,D]2 [B,E][B,D] | %4
w: 1.~If it be|true that the Fa- ther so|loved A *|world lost in sin and de-|
w: 2.~If it be|true that our sin He blots|out, And~re- *|mem- bers a- gainst us no|
w: 3.~If it be|true that His peace He be-|stows, A *|peace that the world can- not|
w: 4.~Christ- ian, make|haste the glad mes- sage to|give; The *|King’s bus- i- ness brooks no|
 [A,C]6 [CE][CE] | [EA]2 [EA][EA] [DG]2 [DF][DF] | [CE][CE] [A,C]2 [CE]2 ([CE][CE]) | %7
w: spair, That He|gave His dear Son up- on|Cal- va- ry’s cross, That *|
w: more, Th- at|hearts are made white in the|blood of the Lamb, And~re- *|
w: give! That He|giv- eth us rich- ly all|things to en- joy, And *|
w: de- lay; God’s|per- ish- ing child- ren are|call- ing for help; Go *|
 [B,^D]2 [DF][DA] [DG][DG] [DF]2 | E4- E ||"^Refrain" EF>G | (z2 G>)A x6 | (z2 [EB]>)[EB] x6 | %12
w: we life e- ter- nal might|share, *||||
w: leased from sin’s bond- age and|power, *|Then tell it|* out!|* tell|
w: life more a- bund- ant to|live, *||||
w: tell them of Je- sus to-|day. *||||
 [Ec]2 [EA]2 [Ed]2 [Ec]2 | [EB]4- [EB]B c>d | (z3/2 A>)[Ae] [Ac]2 [=GA]2 x/ | d6 [=FB]2 | %16
w: ||||
w: it out! Tell the|won- * drous news a-|* round, Till all|* the|
w: ||||
w: ||||
 [EA]3 [EG] [Ec]2 [DB]2 | [CA]6 |] %18
w: ||
w: world, the whole wide|world,|
w: ||
w: ||
V:2
 EFG | A2 x6 | x8 | x8 | x8 | x8 | x8 | x8 | E4- E || x3 | (A6 E>E E2) | (B6 E>E E2) | x8 | x8 | %14
 e3 A/ x9/2 | (=F2 F2 F2) x2 | x8 | x6 |] %18
V:3
 E,(3:2:1F,G, x/3 | A,2 [A,C][A,C] [E,B,][E,B,] [E,G,]2 | [A,,A,]6 ([A,,E,][A,,E,]) | %3
w: ~ ~ ~|~ ~ ~ ~ ~ ~|~ ~ *|
 [E,A,]2 [E,A,][E,A,] [E,G,]2 [E,G,]E, | [A,,E,]6 [A,,A,][A,,A,] | %5
w: ~ ~ ~ ~ ~ ~|~ ~ ~|
 [A,,C]2 [A,,C][A,,C] [E,B,]2 [E,G,][E,G,] | [A,,A,][A,,A,] [A,,E,]2 [A,,A,]2 ([A,,A,][A,,A,]) | %7
w: ~ ~ ~ ~ ~ ~|~ ~ ~ ~ ~ *|
 [B,,A,]2 [B,,A,][B,,F,] [B,,B,][B,,B,] [B,,A,]2 | [E,G,]4- [E,G,] || z3 | %10
w: ~ ~ ~ ~ ~ ~|~ *||
 z2 [A,,C]>[A,,C] [A,,C]2 z2 x2 | z2 [E,G,]>[E,G,] [E,G,]2 [E,G,]>[E,G,] x2 | %12
w: Tell it out!|tell it out! ~ ~|
 [A,,A,]2 [C,A,]2 [B,,G,]2 [A,,A,]2 | [E,G,]4- [E,G,] z3 | z3/2 [A,C]/ [A,C]>[A,C] [A,E]2 [C,E]2 | %15
w: ~ ~ ~ ~|~ *|Till all the world, the|
 [D,A,]2 [D,A,]2 [D,A,]2 [D,D]2 | [E,C]3 [E,B,] [E,A,]2 [E,G,]2 | [A,,A,]6 |] %18
w: whole wide world, *|||
V:4
 (3:2:1E,F,(3:2:1G, x2/3 | A,2 x6 | x8 | x7 E, | x8 | x8 | x8 | x8 | x5 || x3 | x10 | x10 | x8 | %13
 x8 | x8 | x8 | x8 | x6 |] %18

